svgs/solid/tally-4.svg

<svg xmlns="http://www.w3.org/2000/svg" viewBox="0 0 640 512"><!--! Font Awesome Pro 6.6.0 by @fontawesome - https://fontawesome.com License - https://fontawesome.com/license (Commercial License) Copyright 2024 Fonticons, Inc. --><path d="M160 64c0-17.7-14.3-32-32-32s-32 14.3-32 32l0 384c0 17.7 14.3 32 32 32s32-14.3 32-32l0-384zm128 0c0-17.7-14.3-32-32-32s-32 14.3-32 32l0 384c0 17.7 14.3 32 32 32s32-14.3 32-32l0-384zm96-32c-17.7 0-32 14.3-32 32l0 384c0 17.7 14.3 32 32 32s32-14.3 32-32l0-384c0-17.7-14.3-32-32-32zM544 64c0-17.7-14.3-32-32-32s-32 14.3-32 32l0 384c0 17.7 14.3 32 32 32s32-14.3 32-32l0-384z"/></svg>

<svg xmlns="http://www.w3.org/2000/svg" viewBox="0 0 640 512"><!--! Font Awesome Pro 6.5.2 by @fontawesome - https://fontawesome.com License - https://fontawesome.com/license (Commercial License) Copyright 2024 Fonticons, Inc. --><path d="M160 64c0-17.7-14.3-32-32-32s-32 14.3-32 32V448c0 17.7 14.3 32 32 32s32-14.3 32-32V64zm128 0c0-17.7-14.3-32-32-32s-32 14.3-32 32V448c0 17.7 14.3 32 32 32s32-14.3 32-32V64zm96-32c-17.7 0-32 14.3-32 32V448c0 17.7 14.3 32 32 32s32-14.3 32-32V64c0-17.7-14.3-32-32-32zM544 64c0-17.7-14.3-32-32-32s-32 14.3-32 32V448c0 17.7 14.3 32 32 32s32-14.3 32-32V64z"/></svg>
